icons/linear-new-textedit-office-bold.svg

<svg xmlns="http://www.w3.org/2000/svg" width="32px" height="32px" viewBox="0 0 32 32" version="1.1">
    <title>linear-new-textedit-office-bold</title>
    <g id="linear-new-textedit-office-bold" stroke-width="1" fill-rule="evenodd">
        <path d="M7,3 C7,2.44771525 7.44771525,2 8,2 L18,2 C21.8659932,2 25,5.13400675 25,9 C25,11.4009254 23.7912539,13.519533 21.9491082,14.7804765 C24.6405296,16.0673483 26.5,18.8165229 26.5,22 C26.5,26.418278 22.918278,30 18.5,30 L8,30 C7.44771525,30 7,29.5522847 7,29 L7,3 Z M18.5,16 L9,16 L9,28 L18.5,28 C21.8137085,28 24.5,25.3137085 24.5,22 C24.5,18.6862915 21.8137085,16 18.5,16 Z M18,4 L9,4 L9,14 L18,14 C20.7614237,14 23,11.7614237 23,9 C23,6.23857625 20.7614237,4 18,4 Z" id="&#24418;&#29366;" fill-rule="nonzero" />
    </g>
</svg>

<svg xmlns="http://www.w3.org/2000/svg" viewBox="0 0 32 32"><path fill="currentColor" d="M7 3a1 1 0 0 1 1-1h10a7 7 0 0 1 3.95 12.78A8 8 0 0 1 18.5 30H8a1 1 0 0 1-1-1zm11.5 13H9v12h9.5a6 6 0 1 0 0-12M18 4H9v10h9a5 5 0 0 0 0-10"/></svg>
